docs/img/icons/whats.svg

<svg width="24" height="24" viewBox="0 0 24 24" xmlns="http://www.w3.org/2000/svg">
<g>
<path d="M22 11.7424C22 17.1231 17.6047 21.4849 12.1818 21.4849C10.4602 21.4849 8.84289 21.0449 7.43578 20.2727L2 22L3.77222 16.7729C2.87822 15.3049 2.36333 13.5831 2.36333 11.7424C2.36333 6.36178 6.75911 2 12.1818 2C17.6051 2 22 6.36178 22 11.7424ZM12.1818 3.55156C7.62978 3.55156 3.92711 7.226 3.92711 11.7424C3.92711 13.5347 4.51133 15.1944 5.49956 16.5447L4.46822 19.5867L7.64044 18.5784C8.94378 19.4342 10.5051 19.9333 12.182 19.9333C16.7333 19.9333 20.4367 16.2593 20.4367 11.7429C20.4367 7.22644 16.7336 3.55156 12.1818 3.55156ZM17.1398 13.9862C17.0791 13.8869 16.9189 13.8269 16.6784 13.7076C16.4376 13.5882 15.254 13.0102 15.034 12.9309C14.8133 12.8513 14.6524 12.8113 14.4922 13.0502C14.332 13.2893 13.8707 13.8269 13.73 13.9862C13.5896 14.146 13.4493 14.166 13.2084 14.0464C12.968 13.9271 12.1927 13.6747 11.2733 12.8613C10.558 12.2284 10.0749 11.4471 9.93444 11.2078C9.79422 10.9689 9.91978 10.8398 10.04 10.7209C10.1484 10.6138 10.2809 10.442 10.4011 10.3027C10.5218 10.1631 10.5618 10.0638 10.6416 9.90422C10.7222 9.74489 10.682 9.60556 10.6216 9.48578C10.5616 9.36644 10.0798 8.19133 9.87933 7.71311C9.67889 7.23533 9.47867 7.31489 9.338 7.31489C9.19778 7.31489 9.03711 7.29489 8.87667 7.29489C8.71622 7.29489 8.45533 7.35467 8.23467 7.59356C8.01422 7.83267 7.39267 8.41044 7.39267 9.58533C7.39267 10.7604 8.25467 11.8958 8.37533 12.0549C8.49556 12.214 10.0398 14.7038 12.4864 15.66C14.9333 16.6158 14.9333 16.2969 15.3747 16.2569C15.8156 16.2171 16.7982 15.6793 16.9996 15.122C17.1996 14.5638 17.1996 14.0858 17.1398 13.9862Z" />
</g>
</svg>

<svg width="24" height="24" xmlns="http://www.w3.org/2000/svg"><path d="M22 11.742c0 5.381-4.395 9.743-9.818 9.743a9.835 9.835 0 01-4.746-1.212L2 22l1.772-5.227a9.64 9.64 0 01-1.409-5.03C2.363 6.361 6.76 2 12.182 2 17.605 2 22 6.362 22 11.742zm-9.818-8.19c-4.552 0-8.255 3.674-8.255 8.19 0 1.793.584 3.452 1.573 4.803l-1.032 3.042 3.172-1.009a8.25 8.25 0 004.542 1.355c4.551 0 8.255-3.674 8.255-8.19 0-4.517-3.703-8.191-8.255-8.191zm4.958 10.434c-.06-.1-.221-.16-.462-.278-.24-.12-1.424-.698-1.644-.777-.22-.08-.382-.12-.542.12-.16.238-.621.776-.762.935-.14.16-.28.18-.522.06-.24-.119-1.015-.371-1.935-1.185-.715-.633-1.198-1.414-1.339-1.653-.14-.24-.014-.368.106-.487.108-.107.24-.279.361-.418.12-.14.16-.24.24-.399.081-.16.041-.298-.02-.418-.06-.12-.541-1.295-.742-1.773-.2-.478-.4-.398-.541-.398-.14 0-.3-.02-.461-.02-.16 0-.422.06-.642.299-.22.239-.842.816-.842 1.991 0 1.175.862 2.31.982 2.47.12.159 1.665 2.649 4.111 3.605 2.447.956 2.447.637 2.889.597.44-.04 1.423-.578 1.625-1.135.2-.558.2-1.036.14-1.136z"/></svg>
